icons/Atom.svg

<svg width="256" height="256" viewBox="0 0 256 256" fill="none" xmlns="http://www.w3.org/2000/svg">
<rect width="256" height="256" rx="60" fill="#242938"/>
<rect width="256" height="256" rx="60" fill="url(#paint0_linear_403_33)"/>
<path d="M95.9038 106.851C94.2796 109.357 92.7078 111.872 91.1927 114.392C89.535 109.828 88.0795 105.333 86.8392 100.949C91.2465 100.317 95.9314 99.8196 100.869 99.4736C99.1929 101.879 97.5352 104.337 95.9038 106.851ZM217.771 115.683C212.888 110.997 205.907 106.702 197.024 102.918C179.388 95.408 155.766 90.5413 130.507 89.2167C127.461 89.0567 124.488 88.9477 121.611 88.8895C140.895 65.8717 159.52 53.6244 170.366 53.2125C172.663 53.1246 174.591 53.579 176.102 54.5608C181.178 57.8599 182.587 68.0926 179.869 81.9333C179.334 84.6655 181.114 87.3152 183.845 87.8513C186.578 88.3864 189.228 86.6081 189.764 83.8756C194.435 60.0821 187.9 50.204 181.597 46.1066C178.308 43.9682 174.398 42.9692 169.983 43.1369C153.3 43.7709 129.923 61.5606 108.592 88.9869C100.147 89.2777 92.0055 90.0062 84.3894 91.1447C83.5535 87.2624 82.9076 83.5002 82.4699 79.894C80.5568 64.127 82.9033 52.9352 88.7455 49.9552C89.6848 49.4767 90.7099 49.2012 91.8819 49.1133C97.1019 48.7205 104.468 52.2286 112.609 58.9898C114.751 60.7684 117.93 60.4744 119.71 58.3322C121.488 56.1902 121.194 53.0118 119.051 51.2332C108.595 42.5492 99.2001 38.4521 91.1272 39.0587C88.6306 39.246 86.289 39.8903 84.1652 40.9731C78.738 43.7409 75.0291 49.0408 73.1416 56.7256C71.525 63.3063 71.2958 71.5101 72.4607 81.1083C72.9212 84.9041 73.5947 88.8546 74.4628 92.9216C68.5083 94.1764 62.9896 95.7061 58.0429 97.4931C36.4011 105.31 31.4048 115.615 31.0243 122.884C30.6606 129.827 34.2145 140.159 53.2092 149.954C55.6838 151.231 58.7245 150.258 60.0006 147.784C61.2768 145.31 60.3052 142.269 57.8305 140.993C46.9037 135.358 40.8032 128.95 41.0933 123.41C41.502 115.606 54.5828 107.347 76.8646 102.693C78.9286 110.146 81.5796 117.889 84.7585 125.74C76.75 140.772 70.9066 155.588 67.8768 168.768C65.7113 178.184 65.0785 186.36 65.9955 193.069C67.0667 200.904 70.2005 206.56 75.3087 209.881C77.9135 211.574 81.4241 212.898 86.0353 212.898C92.7209 212.897 101.721 210.112 113.617 201.627C115.884 200.01 116.412 196.862 114.795 194.595C113.178 192.328 110.03 191.802 107.763 193.418C96.0361 201.782 85.9576 204.776 80.8036 201.427C75.3071 197.855 74.148 186.49 77.7031 171.026C80.0604 160.773 84.267 149.409 89.9713 137.695C91.2101 140.347 92.5028 142.999 93.8507 145.647C105.332 168.201 119.387 187.823 133.427 200.9C140.498 207.485 147.261 212.122 153.526 214.681C157.329 216.234 160.9 217.01 164.214 217.01C167.282 217.01 170.132 216.344 172.74 215.014C177.975 212.344 181.616 207.309 183.56 200.049C185.226 193.83 185.6 186.074 184.674 176.993C182.85 159.139 176.103 137.365 165.676 115.679C164.471 113.171 161.458 112.115 158.949 113.321C156.439 114.527 155.383 117.54 156.59 120.048C166.524 140.709 172.935 161.296 174.642 178.017C176.144 192.723 173.72 203.197 168.16 206.032C162.321 209.009 151.907 204.333 140.299 193.522C127.1 181.229 113.796 162.601 102.835 141.074C100.33 136.151 98.0223 131.218 95.9212 126.324C98.5284 121.662 101.348 116.986 104.362 112.339C107.437 107.602 110.549 103.136 113.669 98.9472C114.497 98.937 115.33 98.9283 116.169 98.9254C120.499 98.9108 125.139 99.0315 129.979 99.286C154.088 100.551 176.496 105.136 193.074 112.195C207.655 118.405 216.155 126.025 215.812 132.577C215.521 138.14 208.762 143.89 197.267 148.354C194.672 149.362 193.383 152.283 194.391 154.879C195.166 156.874 197.072 158.097 199.094 158.097C199.7 158.097 200.316 157.986 200.915 157.753C220.89 149.998 225.517 140.068 225.882 133.104C226.2 127.018 223.472 121.156 217.771 115.683Z" fill="#F2F8F6"/>
<path d="M118.049 129.344C118.049 135.433 122.981 140.369 129.063 140.369C135.148 140.369 140.079 135.433 140.079 129.344C140.079 123.255 135.148 118.318 129.063 118.318C122.981 118.318 118.049 123.255 118.049 129.344Z" fill="#F1F8F3"/>
<defs>
<linearGradient id="paint0_linear_403_33" x1="128" y1="10.1404" x2="128" y2="256" gradientUnits="userSpaceOnUse">
<stop stop-color="#B2E198"/>
<stop offset="1" stop-color="#04A171"/>
</linearGradient>
</defs>
</svg>

<svg xmlns="http://www.w3.org/2000/svg" width="256" height="256" fill="none" viewBox="0 0 256 256"><rect width="256" height="256" fill="#242938" rx="60"/><rect width="256" height="256" fill="url(#a)" rx="60"/><path fill="#F2F8F6" d="M95.9 106.85a264 264 0 0 0-4.7 7.54 195 195 0 0 1-4.36-13.44q6.62-.95 14.03-1.48-2.51 3.6-4.97 7.38m121.87 8.83c-4.88-4.68-11.86-8.98-20.75-12.76-17.63-7.51-41.25-12.38-66.51-13.7a277 277 0 0 0-8.9-.33c19.29-23.02 37.91-35.27 48.76-35.68q3.46-.13 5.73 1.35c5.08 3.3 6.49 13.53 3.77 27.37a5.04 5.04 0 0 0 9.9 1.95c4.66-23.8-1.87-33.68-8.17-37.77q-4.97-3.22-11.62-2.97c-16.68.63-40.06 18.42-61.39 45.85-8.44.29-16.58 1.02-24.2 2.15q-1.26-5.83-1.92-11.25c-1.91-15.76.43-26.95 6.28-29.93a8 8 0 0 1 3.13-.85c5.22-.39 12.59 3.12 20.73 9.88a5.04 5.04 0 0 0 6.44-7.76C108.6 42.55 99.2 38.45 91.13 39.06q-3.77.29-6.96 1.91c-5.43 2.77-9.14 8.07-11.03 15.76-1.61 6.58-1.84 14.78-.68 24.38q.7 5.7 2 11.81a124 124 0 0 0-16.42 4.57c-21.64 7.82-26.64 18.13-27.02 25.4-.36 6.94 3.2 17.27 22.19 27.06a5.04 5.04 0 1 0 4.62-8.96c-10.93-5.63-17.03-12.04-16.74-17.58.41-7.8 13.5-16.06 35.77-20.72 2.07 7.46 4.72 15.2 7.9 23.05-8.01 15.03-13.85 29.85-16.88 43.03-2.17 9.41-2.8 17.59-1.88 24.3 1.07 7.83 4.2 13.49 9.3 16.81a19.3 19.3 0 0 0 10.74 3.02c6.68 0 15.68-2.79 27.58-11.27a5.04 5.04 0 1 0-5.86-8.21c-11.72 8.36-21.8 11.36-26.96 8-5.5-3.56-6.65-14.93-3.1-30.4 2.36-10.25 6.57-21.61 12.27-33.33q1.86 3.98 3.88 7.96c11.48 22.55 25.54 42.17 39.58 55.25 7.07 6.59 13.83 11.22 20.1 13.78a28 28 0 0 0 10.68 2.33q4.61 0 8.53-2c5.23-2.67 8.88-7.7 10.82-14.96 1.67-6.22 2.04-13.98 1.11-23.06-1.82-17.85-8.57-39.62-19-61.31a5.04 5.04 0 0 0-9.08 4.37c9.93 20.66 16.35 41.25 18.05 57.97 1.5 14.7-.92 25.18-6.48 28.01-5.84 2.98-16.25-1.7-27.86-12.5-13.2-12.3-26.5-30.93-37.47-52.46q-3.75-7.39-6.9-14.75a250 250 0 0 1 17.74-27.37l2.5-.02c4.33-.02 8.97.1 13.8.36 24.12 1.26 46.53 5.85 63.1 12.9 14.59 6.22 23.09 13.84 22.74 20.39-.29 5.56-7.05 11.31-18.54 15.77a5.04 5.04 0 0 0 3.64 9.4c19.98-7.75 24.6-17.68 24.97-24.65.32-6.08-2.4-11.94-8.1-17.42"/><path fill="#F1F8F3" d="M118.05 129.34a11.02 11.02 0 1 0 22.04.01 11.02 11.02 0 0 0-22.04 0"/><defs><linearGradient id="a" x1="128" x2="128" y1="10.14" y2="256" gradientUnits="userSpaceOnUse"><stop stop-color="#B2E198"/><stop offset="1" stop-color="#04A171"/></linearGradient></defs></svg>
